symbols/web/edit_off/materialsymbolsrounded/edit_off_wght300fill1_24px.svg

<svg xmlns="http://www.w3.org/2000/svg" height="24" width="24"><path d="m19.025 21.45-6.55-6.55L7.2 20.175q-.125.125-.3.2-.175.075-.35.075h-2.1q-.375 0-.638-.262-.262-.263-.262-.638v-2.1q0-.175.075-.35t.2-.3L9.1 11.525 2.425 4.85q-.225-.2-.225-.513 0-.312.225-.537.225-.225.538-.225.312 0 .537.225l16.6 16.6q.225.225.225.538 0 .312-.225.512-.225.25-.538.25-.312 0-.537-.25ZM18.75 8.6l-3.375-3.35 1.325-1.3q.425-.45 1.063-.45.637 0 1.062.45l1.225 1.225q.45.425.463 1.05.012.625-.413 1.05Zm-3.8 3.825L11.575 9.05 14.3 6.325 17.675 9.7Z"/></svg>

<svg xmlns="http://www.w3.org/2000/svg" height="24" width="24"><path d="M19.025 21.45 12.475 14.9 7.2 20.175Q7.075 20.3 6.9 20.375Q6.725 20.45 6.55 20.45H4.45Q4.075 20.45 3.812 20.188Q3.55 19.925 3.55 19.55V17.45Q3.55 17.275 3.625 17.1Q3.7 16.925 3.825 16.8L9.1 11.525L2.425 4.85Q2.2 4.65 2.2 4.337Q2.2 4.025 2.425 3.8Q2.65 3.575 2.963 3.575Q3.275 3.575 3.5 3.8L20.1 20.4Q20.325 20.625 20.325 20.938Q20.325 21.25 20.1 21.45Q19.875 21.7 19.562 21.7Q19.25 21.7 19.025 21.45ZM18.75 8.6 15.375 5.25 16.7 3.95Q17.125 3.5 17.763 3.5Q18.4 3.5 18.825 3.95L20.05 5.175Q20.5 5.6 20.513 6.225Q20.525 6.85 20.1 7.275ZM14.95 12.425 11.575 9.05 14.3 6.325 17.675 9.7Z"/></svg>
